tools/download-figma-icons/icons/solid/wallbox-solar.svg

<svg width="25" height="24" viewBox="0 0 25 24" fill="none" xmlns="http://www.w3.org/2000/svg">
<path fill-rule="evenodd" clip-rule="evenodd" d="M22.4925 0.6675C22.4475 0.285 22.1325 0 21.75 0H12C11.625 0 11.3025 0.285 11.2575 0.66L10.11 9.75H2.025C0.9075 9.75 0 10.6575 0 11.775V21.975C0 23.0925 0.9075 24 2.025 24H12.225C13.3425 24 14.25 23.0925 14.25 21.975V15H23.25C23.46 15 23.67 14.91 23.8125 14.7525C23.955 14.595 24.0225 14.3775 24 14.1675L22.4925 0.6675ZM21.9 9H19.44L19.32 6H21.57L21.9 9ZM21.3975 4.5H19.2675L19.1475 1.5H21.0675L21.3975 4.5ZM17.7675 4.5H15.9375L16.0875 1.5H17.655L17.775 4.5H17.7675ZM14.58 1.5L14.43 4.5H12.2775L12.66 1.5H14.58ZM11.9925 18.3375C11.9925 19.3725 11.175 20.22 10.1625 20.22C9.525 20.22 8.955 19.875 8.6325 19.365C8.55964 19.241 8.49369 19.1252 8.43223 19.0174C7.96223 18.1926 7.75381 17.8269 6.7125 17.7075C5.97393 17.6224 5.65393 17.3551 5.33476 17.0884C4.9506 16.7675 4.56764 16.4475 3.4575 16.4475C2.2425 16.4475 2.2425 15.6075 2.2425 15.6075C2.2425 14.775 2.6475 14.355 3.4575 14.355C3.49506 14.355 3.53554 14.3557 3.57864 14.3564C4.00888 14.3637 4.69988 14.3754 5.3475 13.755C5.7525 13.35 6.3075 13.095 6.915 13.095C7.875 13.095 8.6325 13.68 8.9475 14.565C8.9475 14.565 9.3225 16.2 10.77 16.6575C11.475 16.92 11.9925 17.52 11.9925 18.3375ZM12.2175 9.75H11.61L12.0825 6H14.355L14.2425 8.2125C14.22 8.625 14.5425 8.9775 14.955 9H14.9925C15.39 9 15.72 8.685 15.7425 8.2875L15.855 6H17.82L17.94 9H17.2425C16.83 9 16.4925 9.3375 16.4925 9.75C16.4925 10.1625 16.83 10.5 17.2425 10.5H18L18.12 13.5H14.25V11.775C14.25 10.6575 13.3425 9.75 12.225 9.75H12.2175ZM19.6125 13.5L19.4925 10.5H22.065L22.395 13.5H19.6125ZM6.9375 16.5C7.55882 16.5 8.0625 15.9963 8.0625 15.375C8.0625 14.7537 7.55882 14.25 6.9375 14.25C6.31618 14.25 5.8125 14.7537 5.8125 15.375C5.8125 15.9963 6.31618 16.5 6.9375 16.5ZM9.5625 18.465C9.5625 18.105 9.855 17.8125 10.2225 17.8125C10.5825 17.8125 10.875 18.0975 10.875 18.465C10.875 18.8325 10.59 19.125 10.2225 19.125C9.855 19.125 9.5625 18.825 9.5625 18.465Z" fill="black"/>
</svg>

<svg xmlns="http://www.w3.org/2000/svg" width="25" height="24" fill="none" viewBox="0 0 25 24"><path fill="currentColor" fill-rule="evenodd" d="M22.493.668A.747.747 0 0 0 21.75 0H12a.75.75 0 0 0-.742.66L10.11 9.75H2.025A2.026 2.026 0 0 0 0 11.775v10.2C0 23.092.908 24 2.025 24h10.2a2.026 2.026 0 0 0 2.025-2.025V15h9c.21 0 .42-.09.563-.248a.76.76 0 0 0 .187-.585zM21.9 9h-2.46l-.12-3h2.25zm-.502-4.5h-2.13l-.12-3h1.92zm-3.63 0h-1.83l.15-3h1.567l.12 3zm-3.188-3-.15 3h-2.152l.382-3zm-2.588 16.838c0 1.034-.817 1.882-1.83 1.882a1.82 1.82 0 0 1-1.53-.855l-.2-.348c-.47-.824-.678-1.19-1.72-1.31-.738-.085-1.058-.352-1.377-.619-.384-.32-.767-.64-1.877-.64-1.215 0-1.215-.84-1.215-.84q0-1.251 1.215-1.253l.12.001c.43.008 1.122.02 1.77-.601.405-.405.96-.66 1.567-.66.96 0 1.718.585 2.032 1.47 0 0 .376 1.635 1.823 2.092.705.263 1.223.863 1.223 1.68m.225-8.588h-.607L12.083 6h2.272l-.113 2.213c-.022.412.3.765.713.787h.037a.755.755 0 0 0 .75-.713L15.856 6h1.965l.12 3h-.698a.75.75 0 0 0-.75.75c0 .412.338.75.75.75H18l.12 3h-3.87v-1.725a2.026 2.026 0 0 0-2.025-2.025zm7.396 3.75-.12-3h2.572l.33 3zm-12.675 3a1.125 1.125 0 1 0 0-2.25 1.125 1.125 0 0 0 0 2.25m2.625 1.965c0-.36.292-.652.66-.652.36 0 .652.285.652.652a.65.65 0 0 1-.652.66.66.66 0 0 1-.66-.66" clip-rule="evenodd"/></svg>
